!!!!SEGMENT: pl-cz--iii-325--003_engel-jan--sinfonia-in-d-presto.krn
!!!cenid: 17xx:890
!!!COM: Engel, Jan
!!!COM-rismID:
!!!CDT: <1772->1788
!!!CNT:
!!!OPR: Sinfonia in D
!!!OTL: Presto
!!!OMV: 003
!!!PDT:
!!!AGN: Secular
!!!SMS-siglum: PL-CZ
!!!SMS-shelfmark: III-325
!!!SMS-shelfwork: 001-003 M
!!!SMS-variant:
!!!SMS-altvar:
!!!NIFC-rismSourceID: 300000295
!!!NIFC-islandoraID: pl-cz:37632
!!!URL-pdf-islandora: https://repozytorium.nifc.pl/islandora/object/pl-cz%3A37632/datastream/PDF/view
!!!URL-scan:
!!!ONB-nifc: UWAGA: części Sinfonii: Allegro assai, Andante, Presto. Uwaga; brak partii ob i cor
!!!AIN: 1 cello 1 viola 2 violn
!!!key: D
**kern	**dynam	**kern	**dynam	**kern	**dynam	**kern	**dynam
*part4	*part4	*part3	*part3	*part2	*part2	*part1	*part1
*staff4	*	*staff3	*	*staff2	*	*staff1	*
*I"Baſso	*	*I"Alto Viola	*	*I"Violino Secundo.	*	*I"Violino Primo.	*
*I'b	*	*I'a-vla	*	*I'vl 2	*	*I'vl 1	*
*Icello	*	*Iviola	*	*Ivioln	*	*Ivioln	*
*ICstr	*	*ICstr	*	*ICstr	*	*ICstr	*
*clefF4	*	*clefC3	*	*clefG2	*	*clefG2	*
*k[f#c#]	*	*k[f#c#]	*	*k[f#c#]	*	*k[f#c#]	*
*D:	*	*D:	*	*D:	*	*D:	*
*M3/8	*	*M3/8	*	*M3/8	*	*M3/8	*
=1	=1	=1	=1	=1	=1	=1	=1
!	!	!	!LO:DY:b:t=f	!	!	!	!
4D\	f	4d\	f	8d|/L	f	8d/L	f
.	.	.	.	8f#|/	.	8f#/	.
8r	.	8r	.	8a|/J	.	8a/J	.
=2	=2	=2	=2	=2	=2	=2	=2
4.r	.	4.r	.	4dd|>\	.	16dd\LL	.
.	.	.	.	.	.	16cc#\	.
.	.	.	.	.	.	16dd\	.
.	.	.	.	.	.	16ee\	.
.	.	.	.	8r	.	16ff#\	.
.	.	.	.	.	.	16gg\JJ	.
=3	=3	=3	=3	=3	=3	=3	=3
*	*	*tremolo	*	*	*	*	*
8D\L	.	16A/LL	.	16f#\LL	.	4aa|\	.
.	.	16A/	.	16dd\	.	.	.
8F#\	.	16A/	.	16f#\	.	.	.
.	.	16A/	.	16dd\	.	.	.
8A\J	.	16A/	.	16f#\	.	8r	.
.	.	16A/JJ	.	16dd\JJ	.	.	.
=4	=4	=4	=4	=4	=4	=4	=4
*	*	*	*	*tremolo	*	*	*
!	!	!	!	!LO:TX:t=P:problem=mixed beam	!	!	!
8D\L	.	16A/LL	.	16f#/LL	.	4ff#|\	.
.	.	16A/	.	16dd\	.	.	.
8F#\	.	16A/	.	16f#/	.	.	.
.	.	16A/	.	16dd\	.	.	.
8A\J	.	16A/	.	16f#/	.	8r	.
.	.	16A/JJ	.	16dd\JJ	.	.	.
=5	=5	=5	=5	=5	=5	=5	=5
!	!	!	!	!LO:TX:t=P:problem=mixed beam	!	!	!
8AA/L	.	16A/LL	.	16e/LL	.	4gg|\	.
.	.	16A/	.	16cc#\	.	.	.
8C#/	.	16A/	.	16e/	.	.	.
.	.	16A/	.	16cc#\	.	.	.
8E/J	.	16A/	.	16e/	.	8r	.
.	.	16A/JJ	.	16cc#\JJ	.	.	.
=6	=6	=6	=6	=6	=6	=6	=6
!	!	!	!	!LO:TX:t=P:problem=mixed beam	!	!	!
8AA/L	.	16A/LL	.	16e/LL	.	4ee|\	.
.	.	16A/	.	16cc#\	.	.	.
8C#/	.	16A/	.	16e/	.	.	.
.	.	16A/	.	16cc#\	.	.	.
8E/J	.	16A/	.	16e/	.	8r	.
.	.	16A/JJ	.	16cc#\JJ	.	.	.
*	*	*Xtremolo	*	*Xtremolo	*	*	*
=7	=7	=7	=7	=7	=7	=7	=7
4D\	.	4d\	.	8d|>/L	.	8d|>/L	.
.	.	.	.	8f#|>/	.	8f#|>/	.
8r	.	8r	.	8a|>/J	.	8a|>/J	.
!LO:LB:g=original	!	!	!	!LO:LB:g=original	!	!	!
=8	=8	=8	=8	=8	=8	=8	=8
!	!	!	!	!LO:TX:t=P:problem=brak t. 8	!	!	!
4.r	.	4.r	.	4.ryy	.	16dd\LL	.
.	.	.	.	.	.	16cc#\	.
.	.	.	.	.	.	16dd\	.
.	.	.	.	.	.	16ee\	.
.	.	.	.	.	.	16ff#\	.
.	.	.	.	.	.	16gg\JJ	.
!	!	!LO:LB:g=original	!	!	!	!	!
=9	=9	=9	=9	=9	=9	=9	=9
*	*	*tremolo	*	*tremolo	*	*	*
!	!	!	!	!LO:TX:t=P:problem=mixed beam	!	!	!
8D\L	.	16A/LL	.	16f#/LL	.	4aa|\	.
.	.	16A/	.	16dd\	.	.	.
8F#\	.	16A/	.	16f#/	.	.	.
.	.	16A/	.	16dd\	.	.	.
8A\J	.	16A/	.	16f#/	.	8r	.
.	.	16A/JJ	.	16dd\JJ	.	.	.
!	!	!	!	!	!	!LO:LB:g=original	!
=10	=10	=10	=10	=10	=10	=10	=10
!	!	!	!	!LO:TX:t=P:problem=mixed beam	!	!	!
8D\L	.	16A/LL	.	16f#/LL	.	4ff#\	.
.	.	16A/	.	16dd\	.	.	.
8F#\	.	16A/	.	16f#/	.	.	.
.	.	16A/	.	16dd\	.	.	.
8A\J	.	16A/	.	16f#/	.	8r	.
.	.	16A/JJ	.	16dd\JJ	.	.	.
=11	=11	=11	=11	=11	=11	=11	=11
!	!	!	!	!LO:TX:t=P:problem=mixed beam	!	!	!
8E/L	.	16A/LL	.	16e/LL	.	4gg|\	.
.	.	16A/	.	16cc#\	.	.	.
8C#/	.	16A/	.	16e/	.	.	.
.	.	16A/	.	16cc#\	.	.	.
8AA/J	.	16A/	.	16e/	.	8cc#\	.
.	.	16A/JJ	.	16cc#\JJ	.	.	.
*	*	*Xtremolo	*	*Xtremolo	*	*	*
=12	=12	=12	=12	=12	=12	=12	=12
4D\	.	4A/	.	4dd\	.	4dd\	.
8r	.	8r	.	8r	.	8r	.
=13:|!|:	=13:|!|:	=13:|!|:	=13:|!|:	=13:|!|:	=13:|!|:	=13:|!|:	=13:|!|:
!	!	!	!	!	!	!	!LO:DY:b:t=po
!	!	!	!LO:DY:b:t=ppo	!	!	!	!
!	!LO:DY:b:t=po	!	!	!	!	!	!
4AA/	p	4A/	pp	4.r	.	8a\L	p
.	.	.	.	.	.	(8aa\	.
8r	.	8r	.	.	.	8gg#X\J)	.
=14	=14	=14	=14	=14	=14	=14	=14
!	!	!LO:TX:i:a:t=2	!	!	!	!	!
4.r	.	4.r	.	4.r	.	(8ff#\L	.
.	.	.	.	.	.	8ee\	.
.	.	.	.	.	.	8dd#X\J)	.
=15	=15	=15	=15	=15	=15	=15	=15
!	!	!	!	!	!	!LO:TX:t=P:problem=mixed beam	!
4.r	.	4.r	.	8r	.	8ee\L	.
.	.	.	.	(8g#X/L	p	(8b/	.
.	.	.	.	8a/J)	.	8cc#/J)	.
=16	=16	=16	=16	=16	=16	=16	=16
8E\L	fp	8g#X\L	fp	4.b\	.	4.dd\	f
8F#\	.	8a\	.	.	.	.	.
8G#X\J	.	8b\J	.	.	.	.	.
!	!	!	!	!LO:LB:g=original	!	!	!
=17	=17	=17	=17	=17	=17	=17	=17
!	!	!	!	!LO:TX:t=P:problem=brak t. 17-18	!	!	!
4A\	.	4a\	.	4.ryy	.	(8cc#\L	p
.	.	.	.	.	.	8aa\	.
8r	.	8r	.	.	.	8gg#X\J)	.
!	!	!LO:LB:g=original	!	!	!	!	!
=18	=18	=18	=18	=18	=18	=18	=18
!LO:TX:i:a:t=2.	!	!LO:TX:i:a:t=2	!	!	!	!	!
4.r	.	4.r	.	4.ryy	.	(8ff#\L	.
.	.	.	.	.	.	8ee\	.
.	.	.	.	.	.	8dd#X\J)	.
=19	=19	=19	=19	=19	=19	=19	=19
!	!	!	!	!	!	!LO:TX:t=P:problem=mixed beam	!
4.r	.	4.r	.	8r	.	8ee\L	.
.	.	.	.	(8g#X/L	p	(8b/	.
.	.	.	.	8a/J)	.	8cc#/J)	.
!LO:LB:g=original	!	!	!	!	!	!	!
=20	=20	=20	=20	=20	=20	=20	=20
!LO:TX:t=P:problem=w b zbędne takty 20-21	!	!LO:TX:t=P:problem=w b zbędne takty 20-21	!	!LO:TX:t=P:problem=w b zbędne takty 20-21	!	!LO:TX:t=P:problem=w b zbędne takty 20-21	!
!LO:TX:i:a:t=2	!	!	!	!	!	!	!
4.r	.	4.ryy	.	4.ryy	.	4.ryy	.
=21	=21	=21	=21	=21	=21	=21	=21
4.r	.	4.ryy	.	4.ryy	.	4.ryy	.
=22	=22	=22	=22	=22	=22	=22	=22
!	!	!	!	!	!LO:DY:b:t=f	!	!
!	!	!	!LO:DY:b:t=f	!	!	!	!
8E\L	.	8g#X\L	f	4.b\	f	4.ddn\	f
8F#\	f	8a\	.	.	.	.	.
8G#X\J	.	8b\J	.	.	.	.	.
!	!	!	!	!	!	!LO:LB:g=original	!
=23	=23	=23	=23	=23	=23	=23	=23
!LO:TX:t=P:problem=mixed beam	!	!LO:TX:t=P:problem=mixed beam	!	!	!	!	!
8A\L	.	8a\L	.	16cc#\	f	16cc#\	f
.	.	.	.	16a/LL	.	16a/LL	.
8AA/	.	8c#/	.	16a/	.	16a/	.
.	.	.	.	16a/	.	16a/	.
8AA/J	.	8c#/J	.	16a/	.	16a/	.
.	.	.	.	16a/JJ	.	16a/JJ	.
=24	=24	=24	=24	=24	=24	=24	=24
8BB/L	.	8d\L	.	16dd\	.	16dd\	.
.	.	.	.	16a/LL	.	16a/LL	.
8BB/	.	8d\	.	16a/	.	16a/	.
.	.	.	.	16a/	.	16a/	.
8BB/J	.	8d\J	.	16a/	.	16a/	.
.	.	.	.	16a/JJ	.	16a/JJ	.
=25	=25	=25	=25	=25	=25	=25	=25
8C#/L	.	8e\L	.	16ee\	.	16ee\	.
.	.	.	.	16a/LL	.	16a/LL	.
8C#/	.	8e\	.	16a/	.	16a/	.
.	.	.	.	16a/	.	16a/	.
8C#/J	.	8e\J	.	16a/	.	16a/	.
.	.	.	.	16a/JJ	.	16a/JJ	.
!	!	!	!	!LO:LB:g=original	!	!	!
=26	=26	=26	=26	=26	=26	=26	=26
!	!	!LO:TX:t=P:problem=brak t. 26-29	!	!	!	!	!
!	!	!	!	!LO:TX:t=P:problem=defekt źródła	!	!	!
8D/L	.	4.ryy	.	16ryy	.	16ff#\	.
.	.	.	.	16a/LL	.	16a/LL	.
8D/	.	.	.	16a/	.	16a/	.
.	.	.	.	16a/	.	16a/	.
8D/J	.	.	.	16a/	.	16a/	.
.	.	.	.	16a/JJ	.	16a/JJ	.
=27	=27	=27	=27	=27	=27	=27	=27
!LO:TX:t=P:problem=mixed beam	!	!	!	!	!	!	!
8E\L	.	4.ryy	.	4.gg#X 4.b 4.e/	.	4.gg#X 4.b 4.e/	.
8EE/	.	.	.	.	.	.	.
!LO:TX:i:b:t=D.:note=precyzacja wysokości	!	!	!	!	!	!	!
8D\J	.	.	.	.	.	.	.
!LO:LB:g=original	!	!	!	!	!	!	!
=28	=28	=28	=28	=28	=28	=28	=28
4C#/	.	4.ryy	.	8aa|\L	.	8aa|\L	.
.	.	.	.	8ee|\	.	8ee|\	.
8r	.	.	.	8cc#|\J	.	8cc#|\J	.
=29	=29	=29	=29	=29	=29	=29	=29
8E\L	.	4.ryy	.	4.e/	.	4.e/	.
8E\	.	.	.	.	.	.	.
8E\J	.	.	.	.	.	.	.
!	!	!	!	!	!	!LO:LB:g=original	!
=30	=30	=30	=30	=30	=30	=30	=30
8EE/L	.	8G#X/L	.	4.bT/	.	4.bT\	.
8EE/	.	8G#/	.	.	.	.	.
8EE/J	.	8G#/J	.	.	.	.	.
=31	=31	=31	=31	=31	=31	=31	=31
!LO:TX:t=P:problem=mixed beam	!	!LO:TX:t=P:problem=mixed beam	!	!	!	!	!
!	!	!	!	!	!	!	!LO:DY:b:t=po
8AA/L	.	8A/L	.	8a|\L	p	8a|\L	p
!	!	!	!LO:DY:b:t=po&colon;	!	!	!	!
!	!LO:DY:b:t=po	!	!	!	!	!	!
8cn|>\	p	8ccn|\	p	8ccn|\	.	8ccn|\	.
8B|>\J	.	8b|\J	.	8b|\J	.	8b|\J	.
!	!	!LO:LB:g=original	!	!	!	!	!
=32	=32	=32	=32	=32	=32	=32	=32
8cn|>\L	.	8ccn|\L	.	8ccn|>/L	.	8ccn|>/L	.
8A|>\	.	8an|\	.	8a|>/	.	8a|>/	.
8G|>\J	.	8g|\J	.	8g|>/J	.	8g|>/J	.
!	!	!	!	!LO:LB:g=original	!	!	!
=33	=33	=33	=33	=33	=33	=33	=33
!	!	!	!	!LO:TX:t=P:problem=defekt źródła	!	!	!
8F#|>\L	.	8f#|\L	.	8ryy	.	8f#|>/L	.
8A|>\	.	8a|\	.	8ryy	.	8a|>/	.
8G|>\J	.	8g|\J	.	8g/J	.	8g|>/J	.
=34	=34	=34	=34	=34	=34	=34	=34
8A|>\L	.	8a|\L	.	8a|>/L	.	8a|>/L	.
8F#|>\	.	8f#|\	.	8f#|>/	.	8f#|>/	.
8E|>\J	.	8e|\J	.	8e|>/J	.	8e|>/J	.
!LO:LB:g=original	!	!	!	!	!	!	!
=35	=35	=35	=35	=35	=35	=35	=35
!	!	!	!	!LO:TX:t=P:problem=mixed beam	!	!LO:TX:t=P:problem=mixed beam	!
4D#X|>/	.	4d#X|>\	.	8d#X/L	.	8d#X/L	.
.	.	.	.	8b|\	.	8b|\	.
8r	.	8r	.	8b|\J	.	8b|\J	.
=36	=36	=36	=36	=36	=36	=36	=36
!LO:TX:i:a:t=3	!	!LO:TX:i:a:t=3	!	!	!	!	!
4.r	.	4.r	.	4b|\	.	4b|\	.
.	.	.	.	8r	.	8r	.
=37	=37	=37	=37	=37	=37	=37	=37
4.r	.	4.r	.	8r	.	8r	.
.	.	.	.	8b|\L	.	8b|\L	.
.	.	.	.	8b|\J	.	8b|\J	.
=38	=38	=38	=38	=38	=38	=38	=38
4.r	.	4.r	.	4b|\	.	4b|\	.
.	.	.	.	8r	.	8r	.
=39	=39	=39	=39	=39	=39	=39	=39
8r	.	8r	.	8r	.	8r	.
!	!LO:DY:b:t=po	!	!	!	!	!	!
8B|\L	p	8b|\L	p	8b|\L	.	8b|>/L	.
8A|\J	.	8a|\J	.	8a|\J	.	8a|>/J	.
!	!	!	!	!LO:LB:g=original	!	!	!
=40	=40	=40	=40	=40	=40	=40	=40
!	!	!	!	!LO:TX:t=P:problem=defekt źródła	!	!	!
8B|\L	.	8b|\L	.	8ryy	.	8b|>/L	.
8G|\	.	8g|\	.	8g|>/L	.	8g|>/	.
8F#|\J	.	8f#|\J	.	8f#|>/J	.	8f#|>/J	.
!	!	!LO:LB:g=original	!	!	!	!LO:LB:g=original	!
=41	=41	=41	=41	=41	=41	=41	=41
8E|\L	.	8e|\L	.	8e|>/L	.	8e|>/L	.
8G|\	.	8g|\	.	8g|>/	.	8g|>/	.
8F#|\J	.	8f#|\J	.	8f#|>/J	.	8f#|>/J	.
=42	=42	=42	=42	=42	=42	=42	=42
8G|\L	.	8g|\L	.	8g|>/L	.	8g|>/L	.
8E|\	.	8e|\	.	8e|>/	.	8e|>/	.
8D|\J	.	8d|\J	.	8d|>/J	.	8d|>/J	.
!LO:LB:g=original	!	!	!	!	!	!	!
=43	=43	=43	=43	=43	=43	=43	=43
!	!	!	!	!LO:TX:t=P:problem=mixed beam	!	!	!
4C#/	.	4c#|>\	.	8c#|>/L	.	8c#|>/L	.
.	.	.	.	8a|>\	.	8a|>/	.
8r	.	8r	.	8a|>\J	.	8a|>/J	.
=44	=44	=44	=44	=44	=44	=44	=44
!LO:TX:i:a:t=3.	!	!	!	!	!	!	!
4.r	.	4.r	.	4a|>/	.	4a/	.
.	.	.	.	8r	.	8r	.
=45	=45	=45	=45	=45	=45	=45	=45
4.r	.	4.r	.	8r	.	8r	.
.	.	.	.	8a|>/L	.	8a|>/L	.
.	.	.	.	8a|>/J	.	8a|>/J	.
=46	=46	=46	=46	=46	=46	=46	=46
4.r	.	4.r	.	4a/	.	4.a|>/	f
.	.	.	.	8r	.	.	.
!	!	!	!	!LO:LB:g=original	!	!	!
=47	=47	=47	=47	=47	=47	=47	=47
4D\	f	4d\	f	8d|>/L	.	8d|>/L	.
.	.	.	.	8f#|>/	.	8f#|>/	.
8r	.	8r	.	8a|>/J	.	8a|>/J	.
=48	=48	=48	=48	=48	=48	=48	=48
4.r	.	4.r	.	4dd\	.	16dd\LL	.
.	.	.	.	.	.	16cc#\	.
.	.	.	.	.	.	16dd\	.
.	.	.	.	.	.	16ee\	.
.	.	.	.	8r	.	16ff#\	.
.	.	.	.	.	.	16gg\JJ	.
=49	=49	=49	=49	=49	=49	=49	=49
*	*	*tremolo	*	*tremolo	*	*	*
!	!	!	!	!LO:TX:t=P:problem=mixed beam	!	!	!
8D\L	.	16A/LL	.	16f#/LL	.	4aa|\	.
.	.	16A/	.	16dd\	.	.	.
8F#\	.	16A/	.	16f#/	.	.	.
.	.	16A/	.	16dd\	.	.	.
8A\J	.	16A/	.	16f#/	.	8r	.
.	.	16A/JJ	.	16dd\JJ	.	.	.
=50	=50	=50	=50	=50	=50	=50	=50
!	!	!	!	!LO:TX:t=P:problem=mixed beam	!	!	!
8D\L	.	16A/LL	.	16f#/LL	.	4ff#|\	.
.	.	16A/	.	16dd\	.	.	.
8F#\	.	16A/	.	16f#/	.	.	.
.	.	16A/	.	16dd\	.	.	.
8A\J	.	16A/	.	16f#/	.	8r	.
.	.	16A/JJ	.	16dd\JJ	.	.	.
!	!	!LO:LB:g=original	!	!	!	!	!
=51	=51	=51	=51	=51	=51	=51	=51
!	!	!	!	!LO:TX:t=P:problem=mixed beam	!	!	!
8AA/L	.	16A/LL	.	16e/LL	.	4gg|\	.
.	.	16A/	.	16cc#\	.	.	.
8C#/	.	16A/	.	16e/	.	.	.
.	.	16A/	.	16cc#\	.	.	.
8E/J	.	16A/	.	16e/	.	8r	.
.	.	16A/JJ	.	16cc#\JJ	.	.	.
!	!	!	!	!	!	!LO:LB:g=original	!
=52	=52	=52	=52	=52	=52	=52	=52
!	!	!	!	!LO:TX:t=P:problem=mixed beam	!	!	!
8AA/L	.	16A/LL	.	16e/LL	.	4ee|\	.
.	.	16A/	.	16cc#\	.	.	.
8C#/	.	16A/	.	16e/	.	.	.
.	.	16A/	.	16cc#\	.	.	.
8E/J	.	16A/	.	16e/	.	8r	.
.	.	16A/JJ	.	16cc#\JJ	.	.	.
*	*	*Xtremolo	*	*Xtremolo	*	*	*
!LO:LB:g=original	!	!	!	!	!	!	!
=53	=53	=53	=53	=53	=53	=53	=53
4D/	.	4d\	.	8d|/L	.	8d/L	.
.	.	.	.	8f#|/	.	8f#/	.
8r	.	8r	.	8a|/J	.	8a/J	.
!	!	!	!	!LO:LB:g=original	!	!	!
=54	=54	=54	=54	=54	=54	=54	=54
4.r	.	4.r	.	4dd|>\	.	16dd\LL	.
.	.	.	.	.	.	16cc#\	.
.	.	.	.	.	.	16dd\	.
.	.	.	.	.	.	16ee\	.
.	.	.	.	8r	.	16ff#\	.
.	.	.	.	.	.	16gg\JJ	.
=55	=55	=55	=55	=55	=55	=55	=55
*	*	*tremolo	*	*tremolo	*	*	*
8D\L	.	16d\LL	.	16A/LL	.	4aa|\	.
.	.	16d\	.	16f#/	.	.	.
8F#\	.	16d\	.	16A/	.	.	.
.	.	16d\	.	16f#/	.	.	.
8A\J	.	16d\	.	16A/	.	8r	.
.	.	16d\JJ	.	16f#/JJ	.	.	.
=56	=56	=56	=56	=56	=56	=56	=56
8D\L	.	16d\LL	.	16A/LL	.	4cccn|\	.
.	.	16d\	.	16f#/	.	.	.
8F#\	.	16d\	.	16A/	.	.	.
.	.	16d\	.	16f#/	.	.	.
8A\J	.	16d\	.	16A/	.	8r	.
.	.	16d\JJ	.	16f#/JJ	.	.	.
=57	=57	=57	=57	=57	=57	=57	=57
!	!	!	!	!LO:TX:t=P:problem=mixed beam	!	!	!
8D\L	.	16d\LL	.	16B/LL	.	4bbn|\	.
.	.	16d\	.	16g\	.	.	.
8G\	.	16d\	.	16B/	.	.	.
.	.	16d\	.	16g\	.	.	.
8B\J	.	16d\	.	16B/	.	8r	.
.	.	16d\JJ	.	16g\JJ	.	.	.
=58	=58	=58	=58	=58	=58	=58	=58
!	!	!	!	!LO:TX:t=P:problem=mixed beam	!	!	!
8E\L	.	16A/LL	.	16A/LL	.	4ccc#X|\	.
.	.	16A/	.	16e\	.	.	.
8A\	.	16A/	.	16A/	.	.	.
.	.	16A/	.	16e\	.	.	.
8c#\J	.	16A/	.	16A/	.	8r	.
.	.	16A/JJ	.	16e\JJ	.	.	.
*	*	*	*	*Xtremolo	*	*	*
*	*	*Xtremolo	*	*	*	*	*
=59	=59	=59	=59	=59	=59	=59	=59
!	!	!LO:N:vis=4	!	!	!	!	!
8D\L	.	8f#\	.	16d/	.	16ddd|\	.
.	.	.	.	16dd\LL	.	16dd\LL	.
!	!	!LO:N:vis=4	!	!	!	!	!
8D\	.	8f#\	.	16dd\	.	16dd\	.
.	.	.	.	16dd\	.	16dd\	.
!	!	!LO:N:vis=4	!	!	!	!	!
8D\J	.	8f#\	.	16dd\	.	16dd\	.
.	.	.	.	16dd\JJ	.	16dd\JJ	.
!LO:LB:g=original	!	!LO:LB:g=original	!	!LO:LB:g=original	!	!	!
=60	=60	=60	=60	=60	=60	=60	=60
!	!	!	!	!LO:TX:t=P:problem=defekt źródła	!	!	!
8E\L	.	8g\L	.	16ryy	.	16ddd\	.
.	.	.	.	16dd\LL	.	16dd\LL	.
8E\	.	8g\	.	16dd\	.	16dd\	.
.	.	.	.	16dd\	.	16dd\	.
8E\J	.	8g\J	.	16dd\	.	16dd\	.
.	.	.	.	16dd\JJ	.	16dd\JJ	.
!	!	!	!	!	!	!LO:LB:g=original	!
=61	=61	=61	=61	=61	=61	=61	=61
8F#\L	.	8a\L	.	16d/	.	16ddd\	.
.	.	.	.	16dd\LL	.	16dd\LL	.
8F#\	.	8a\	.	16dd\	.	16dd\	.
.	.	.	.	16dd\	.	16dd\	.
8F#\J	.	8a\J	.	16dd\	.	16dd\	.
.	.	.	.	16dd\JJ	.	16dd\JJ	.
=62	=62	=62	=62	=62	=62	=62	=62
8G\L	.	8b\L	.	16d/	.	16ddd\	.
.	.	.	.	16dd\LL	.	16dd\LL	.
8G\	.	8b\	.	16dd\	.	16dd\	.
.	.	.	.	16dd\	.	16dd\	.
8G\J	.	8b\J	.	16dd\	.	16dd\	.
.	.	.	.	16dd\JJ	.	16dd\JJ	.
=63	=63	=63	=63	=63	=63	=63	=63
4A\	.	4a\	.	8ddd|\L	.	8ddd|\L	.
.	.	.	.	8aa|\	.	8aa|\	.
8r	.	8r	.	8ff#|\J	.	8ff#|\J	.
!	!	!	!	!LO:LB:g=original	!	!	!
=64	=64	=64	=64	=64	=64	=64	=64
!	!	!	!	!LO:TX:t=P:problem=defekt źródła	!	!	!
8r	.	8r	.	8ryy	.	8dd|>/L	.
8r	.	8r	.	8a|/L	.	8a|>/	.
8F#|>\	.	8f#|>\	.	8f#|/J	.	8f#|>/J	.
=65	=65	=65	=65	=65	=65	=65	=65
4.G|>\	.	4.g|>\	.	4.gT/	.	4.g|>/	.
=66	=66	=66	=66	=66	=66	=66	=66
4.A|>\	.	4.a|>\	.	4.a|>/	.	4.a|>/	.
=67	=67	=67	=67	=67	=67	=67	=67
!	!	!LO:SIC:v:s=4d\	!	!	!	!	!
8D\L	.	4c#\	.	4d/	.	4d/	.
8D\	.	.	.	.	.	.	.
8D\J	.	8a 8f#/	.	8ff# 8a 8d/	.	8ff# 8a 8d/	.
!LO:LB:g=original	!	!LO:LB:g=original	!	!	!	!	!
=68	=68	=68	=68	=68	=68	=68	=68
8D/L	.	4a 4f#/	.	4ff# 4a 4d/	.	4ff# 4a 4d/	.
8D/	.	.	.	.	.	.	.
8D/J	.	8a 8f#/	.	8ff# 8a 8d/	.	8ff# 8a 8d/	.
=69	=69	=69	=69	=69	=69	=69	=69
4D/	.	4a 4f#/	.	4ff# 4a 4d/	.	4ff# 4a 4d/	.
8r	.	8r	.	8r	.	8r	.
==	==	==	==	==	==	==	==
*-	*-	*-	*-	*-	*-	*-	*-
!!!system-decoration: [(s1,s2,s3,s4)]
!!!RDF**kern: > = above
!!!RDF**kern: < = below
!!!RDF**kern: | = vertical stroke
!!!RDF**dynam: f = f&colon;
!!!ENC: Marcin Jachim
!!!END: 2020-07-18
!!!ENC: Kamil Watkowski
!!!END: 2022-03-09
